icons/1_Primary/Nvidia.svg

<svg xmlns="http://www.w3.org/2000/svg" width="1024" height="1024" fill="none">
   <g clip-path="url(#a)">
      <path fill="#98DC9A" d="M512 1024c282.77 0 512-229.23 512-512S794.77 0 512 0 0 229.23 0 512s229.23 512 512 512Z"/>
      <path fill="#fff" d="M430.58 436.9v-33.66c3.26-.23 6.56-.41 9.92-.51 92.04-2.89 152.41 79.09 152.41 79.09S527.7 572.4 457.78 572.4c-10.06 0-19.09-1.63-27.2-4.35V466.01c35.83 4.33 43.03 20.15 64.57 56.06l47.91-40.4s-34.97-45.87-93.91-45.87c-6.42 0-12.55.45-18.56 1.1m0-111.17V376c3.3-.27 6.61-.47 9.92-.59 127.99-4.31 211.37 104.95 211.37 104.95s-95.77 116.47-195.55 116.47c-9.14 0-17.7-.85-25.74-2.27v31.08c6.87.87 14 1.39 21.44 1.39 92.85 0 160-47.42 225.03-103.54 10.77 8.64 54.9 29.63 63.99 38.83-61.83 51.76-205.91 93.48-287.59 93.48-7.87 0-15.44-.47-22.86-1.19v43.67h352.91V325.75H430.6l-.01-.02Zm0 242.31v26.52c-85.89-15.3-109.73-104.58-109.73-104.58s41.24-45.69 109.73-53.08V466c-.06 0-.09-.01-.14-.01-35.93-4.31-64.02 29.25-64.02 29.25s15.74 56.53 64.16 72.8Zm-152.54-81.92s50.9-75.11 152.54-82.87v-27.24c-112.58 9.02-210.06 104.36-210.06 104.36s55.21 159.62 210.06 174.23v-28.96c-113.63-14.3-152.54-139.52-152.54-139.52Z"/>
   </g>
   <defs>
      <clipPath id="a">
         <path fill="#fff" d="M0 0h1024v1024H0z"/>
      </clipPath>
   </defs>
</svg>

<svg width="1024" height="1024" viewBox="0 0 1024 1024" fill="none" xmlns="http://www.w3.org/2000/svg">
<g clip-path="url(#clip0_2_2991)">
<path d="M512 1024C794.77 1024 1024 794.77 1024 512C1024 229.23 794.77 0 512 0C229.23 0 0 229.23 0 512C0 794.77 229.23 1024 512 1024Z" fill="#98DC9A"/>
<path d="M430.58 436.9V403.24C433.84 403.01 437.14 402.83 440.5 402.73C532.54 399.84 592.91 481.82 592.91 481.82C592.91 481.82 527.7 572.4 457.78 572.4C447.72 572.4 438.69 570.77 430.58 568.05V466.01C466.41 470.34 473.61 486.16 495.15 522.07L543.06 481.67C543.06 481.67 508.09 435.8 449.15 435.8C442.73 435.8 436.6 436.25 430.59 436.9M430.59 325.73V376C433.89 375.73 437.2 375.53 440.51 375.41C568.5 371.1 651.88 480.36 651.88 480.36C651.88 480.36 556.11 596.83 456.33 596.83C447.19 596.83 438.63 595.98 430.59 594.56V625.64C437.46 626.51 444.59 627.03 452.03 627.03C544.88 627.03 612.03 579.61 677.06 523.49C687.83 532.13 731.96 553.12 741.05 562.32C679.22 614.08 535.14 655.8 453.46 655.8C445.59 655.8 438.02 655.33 430.6 654.61V698.28H783.51V325.75H430.6L430.59 325.73ZM430.59 568.04V594.56C344.7 579.26 320.86 489.98 320.86 489.98C320.86 489.98 362.1 444.29 430.59 436.9V466C430.53 466 430.5 465.99 430.45 465.99C394.52 461.68 366.43 495.24 366.43 495.24C366.43 495.24 382.17 551.77 430.59 568.04ZM278.05 486.12C278.05 486.12 328.95 411.01 430.59 403.25V376.01C318.01 385.03 220.53 480.37 220.53 480.37C220.53 480.37 275.74 639.99 430.59 654.6V625.64C316.96 611.34 278.05 486.12 278.05 486.12Z" fill="white"/>
</g>
<defs>
<clipPath id="clip0_2_2991">
<rect width="1024" height="1024" fill="white"/>
</clipPath>
</defs>
</svg>
